!!!RNB: signs for voice crossing?
!!!COA: Jaspart
!!!COS: Japart, Jean
!!!LAR: Sicher, Fridolin
!!!ONB: Doubtful: Gaspar van Weerbeke
!!!OTL: J'ay pris amours
!!!ONB: organ intabulation
!!!AGN: Song; Chanson
!!!SCT: Gas0509.2
!!!SCA: Gas0509.2
**kern	**kern
*part1	*part1
*staff2	*staff1
*clefF4	*clefG2
*k[]	*k[]
*M2/2	*M2/2
*met(C|)	*met(C|)
=1	=1
*^	*^
[1ryy	1G	1G	1ryy
=2	=2	=2	=2
[1ryy	2G	2B-X	1ryy
.	4E-X	2B-	.
.	4G	.	.
=3	=3	=3	=3
1ryy	1D	1A	1ryy
=4	=4	=4	=4
1G	1GG	2G	1ryy
.	.	4.B-X	.
.	.	8c	.
=5	=5	=5	=5
2B-X	2G	4d	1ryy
.	.	4e-i	.
2B-i	4E-X	4d	.
.	4G	[4g	.
=6	=6	=6	=6
1A	4.D	4g]	1ryy
.	.	8fL	.
.	8C	8eJ	.
.	2D	8fL	.
.	.	8e	.
.	.	8d	.
.	.	8cJ	.
!!LO:LB:g=original
=7	=7	=7	=7
2G	1GG	1g	4.B-X
.	.	.	8c
2B-X	.	.	2d
=8	=8	=8	=8
4re	1G	2b-X	4rc
4A	.	.	4c
2B-X	.	2b-	4d
.	.	.	4e
=9	=9	=9	=9
2c	2F	1a	1f
2d	2D	.	.
=10	=10	=10	=10
4re	1G	1d	1g
4c	.	.	.
2d	.	.	.
=11	=11	=11	=11
2e-X	2C	2rdd	2g
2d	2D	2f	4f
.	.	.	[4d
=12	=12	=12	=12
4re	2G	2g	4d]
4B	.	.	4e
2c	2F	2a	2f
!!LO:LB:g=original
=13	=13	=13	=13
4.B-X	2G	2b-X	4.d
8c	.	.	8e
2d	2D	4a	2f
.	.	4f	.
=14	=14	=14	=14
4re	2G	2g	2B-X
4c	.	.	.
2d	2D	2f	4f
.	.	.	4d
=15	=15	=15	=15
2G	4C	2rdd	4e
.	4E-X	.	2g
2A	2D	2a	.
.	.	.	4f#X
=16	=16	=16	=16
2G	2GG	2b-X	4.g
.	.	.	8f
2rB	2rBB	2cc	4e
.	.	.	4f
=17	=17	=17	=17
1ryy	2D	2dd	4re
.	.	.	8eL
.	.	.	8dJ
.	2r	4cc	4e
.	.	4a	4f
=18	=18	=18	=18
1ryy	2.G	4b-i	4d
.	.	2g	4.B-X
.	.	.	8G
.	4F	4a	4c
!!LO:LB:g=original
=19	=19	=19	=19
1ryy	2G	4g	4B-X
.	.	8f#iL	4G
.	.	8eJ	.
.	2D	2f#i	2A
=20	=20	=20	=20
2rF	4.GG	1g	2G
.	8AA	.	.
2G	4BB-i	.	4.d
.	4C	.	.
.	.	.	8e
=21	=21	=21	=21
4F	4.D	4f	1ryy
4B-X	.	4d	.
.	8E	.	.
4A	4F	4c	.
4B-i	4G	[4d	.
=22	=22	=22	=22
8rBB	8rBB	1g	4d]
8AL	8FL	.	.
8G	8E	.	8c#iL
8FJ	8DJ	.	8BJ
2G	2E	.	2c#i
=23	=23	=23	=23
2rA	1D	2b-X	1d
4.A	.	[2a	.
8B-X	.	.	.
*v	*v	*	*
*	*v	*v
=24	=24
4c	2a]
4d	.
4.c	2f
8d	.
!!LO:LB:g=original
=25	=25
4B-X	2g
2e-X	.
.	[2f
4f	.
=26	=26
8rF	2f]
8e-iL	.
8d	.
8cJ	.
4e-X	2b-X
4d	.
=27	=27
*^	*
4rd	2F	4r
8cL	.	8aL
8B-XJ	.	8gJ
2c	2F	2a
=28	=28	=28
*	*	*^
4B-X	2.BB-X	1b-X	2.d
2B-i	.	.	.
8AL	4C	.	8cL
8GJ	.	.	8B-iJ
=29	=29	=29	=29
4.F	2D	1rb	4A
.	.	.	4B-X
8E	.	.	.
4G	4C	.	4c
4F	4D	.	4A
=30	=30	=30	=30
1G	4GG	1b-X	2G
.	2BB-X	.	.
.	.	.	4d
.	4C	.	4e
!!LO:LB:g=original
=31	=31	=31	=31
1F	1D	2a	4.f
.	.	.	8e
.	.	2f	2d
=32	=32	=32	=32
1E	1G	1g	4rB
.	.	.	8c#iL
.	.	.	8BJ
.	.	.	2c#X
=33	=33	=33	=33
1D	1A	2f	4d
.	.	.	8cL
.	.	.	8B-XJ
.	.	[2d	2A
=34	=34	=34	=34
2d	2D	2d]	2A
4c	4E-X	[2g	4G
4B-X	[4D	.	4d
=35	=35	=35	=35
2G	4D]	2g]	4B-X
.	4G	.	4c
2A	2D	2f#X	2d
=36	=36	=36	=36
2G	2G	2g	2B-X
2rc	2F	2a	2c
!!LO:PB:g=original
=37	=37	=37	=37
1ryy	1D	1f	2.d
.	.	.	8eL
.	.	.	8fJ
=38	=38	=38	=38
2rA	2GG	2g	1ryy
[2B-X	2rBB	4f	.
.	.	[4d	.
=39	=39	=39	=39
2B-]	2G	4d]	1ryy
.	.	4g	.
2c	2C	4a	.
.	.	[4g	.
=40	=40	=40	=40
1A	1D	4g]	1ryy
.	.	8f#iL	.
.	.	8eJ	.
.	.	2f#X	.
=41	=41	=41	=41
1G	1GG	4r	1ryy
.	.	2g	.
.	.	8fL	.
.	.	8eJ	.
=42	=42	=42	=42
2B-X	1rBB	2d	1ryy
2A	.	2c	.
!!LO:LB:g=original
=43	=43	=43	=43
2F	2rBB	4c	1ryy
.	.	2d	.
2G	2GG	.	.
.	.	[4B-X	.
=44	=44	=44	=44
4rB	1D	4B-]	1ryy
8F#iL	.	8AL	.
8EJ	.	8GJ	.
2F#X	.	2A	.
=45	=45	=45	=45
1G	1GG	4G	1ryy
.	.	4d	.
.	.	4e-X	.
.	.	[4d	.
=46	=46	=46	=46
1rF	1D	1f	4d]
.	.	.	8cL
.	.	.	8B-XJ
.	.	.	2A
=47	=47	=47	=47
2rF	1GG	2.g	2G
2G	.	.	2B-X
.	.	4f	.
=48	=48	=48	=48
4A	1rBB	4e	4c
2F	.	4d	2A
.	.	2d	.
4G	.	.	4B-X
!!LO:LB:g=original
=49	=49	=49	=49
8rF	2BB-X	4ra	8rA
8F	.	.	8AL
4D	.	8c#iL	8G
.	.	8BJ	8FJ
2E	2AA	2c#i	2A
=50	=50	=50	=50
1D	2BB-X	1d	2F
.	2GG	.	2G
=51	=51	=51	=51
2rA	2D	2rb	4A
.	.	.	4B-X
2D	2rGG	2a	4A
.	.	.	[4d
=52	=52	=52	=52
1F	1D	2a	4d]
.	.	.	8cL
.	.	.	8B-XJ
.	.	2a	2A
=53	=53	=53	=53
1G	1GG	2.b-X	2G
.	.	.	2B-X
.	.	4a	.
=54	=54	=54	=54
2A	2D	2f	2A
2G	2GG	2g	2B-X
!!LO:LB:g=original
=55	=55	=55	=55
2E	2rGG	2a	2c
2F	2D	2f	2d
*	*	*v	*v
=56	=56	=56
1G	1C	4r
.	.	8eL
.	.	8dJ
.	.	2e
=57	=57	=57
2F	1D	1f
2D	.	.
*v	*v	*
=58	=58
2E	2r
2F	2d
=59	=59
*^	*
2G	2rBB	2e
2D	2D	2f
=60	=60	=60
2B-X	2E	2g
2A	2F	2d
!!LO:LB:g=original
=61	=61	=61
*	*	*^
4B-X	2G	2rb	1d
4.d	.	.	.
.	2D	2f	.
8c	.	.	.
4d	.	.	.
=62	=62	=62	=62
4G	2C	2g	2e-X
4c	.	.	.
4A	2D	2f	2d
4d	.	.	.
=63	=63	=63	=63
1B-X	2GG	2.b-X	8rc
.	.	.	8c
.	.	.	4d
.	2G	.	4rc
.	.	4a	4f
=64	=64	=64	=64
2c	2E	2g	8gL
.	.	.	8fJ
.	.	.	4g
2d	2D	2f	4a
.	.	.	[4d
=65	=65	=65	=65
1d	2G	2b-X	8d]
.	.	.	8r
.	.	.	16eL
.	.	.	16f
.	.	.	8gJ
.	2D	4a	4f
.	.	[4dd	8gL
.	.	.	8aJ
!!LO:LB:g=original
=66	=66	=66	=66
4d	2G	4dd]	4d
4c	.	4cc	2g
2d	2A	2a	.
.	.	.	4f#X
=67	=67	=67	=67
2d	1G	2b-X	4g
.	.	.	4.d
2B-X	.	2g	.
.	.	.	8c
.	.	.	4d
=68	=68	=68	=68
1A	1D	4rb	8rB
.	.	.	8c
.	.	8f#iL	4.d
.	.	8eJ	.
.	.	2f#i	.
.	.	.	8c
.	.	.	4d
=69	=69	=69	=69
1G	1GG	1g	2.B-X
.	.	.	4c
=70	=70	=70	=70
1Gl	1GGl	1gl	1dl
*v	*v	*	*
*	*v	*v
==	==
*-	*-
!!!system-decoration: [*]
!!!RDF**kern: j = editorial accidental, optional, paren up
!!!RDF**kern: i = editorial accidental
!!!RDF**kern: l = terminal breve
!!!PTL: Gaspar van Weerbeke: Collected Works. V. Settings of Liturgical Texts, Songs, and Instrumental Works
!!!ISBN: 978-1-59551-544-5
!!!PPR: American Institute of Musicology
!!!PC#: Corpus Mensurabilis Musicae 106/V
!!!PDT: 2020
!!!PED: Kolb, Paul
!!!YEC: Copyright 2018, Kolb, Paul
!!!YEM: CC-BY-NC 4.0 (https://creativecommons.org/licenses/by-nc/4.0/legalcode)
!!!EED: Zybina, Karina
!!!EEV: 2021/08/26
!!!muse2ps: C^@{COA}?^i2I150v90,90,120c120z18l2770t130
